icons/album-fill.svg

<svg xmlns="http://www.w3.org/2000/svg" viewBox="0 0 24 24">
    <g>
        <path fill="none" d="M0 0h24v24H0z"/>
        <path d="M12 2c5.52 0 10 4.48 10 10s-4.48 10-10 10S2 17.52 2 12 6.48 2 12 2zm0 14c2.213 0 4-1.787 4-4s-1.787-4-4-4-4 1.787-4 4 1.787 4 4 4zm0-5c.55 0 1 .45 1 1s-.45 1-1 1-1-.45-1-1 .45-1 1-1z"/>
    </g>
</svg>

<svg viewBox="0 0 24 24" fill="currentColor" xmlns="http://www.w3.org/2000/svg"><path d="M12 2C17.52 2 22 6.48 22 12C22 17.52 17.52 22 12 22C6.48 22 2 17.52 2 12C2 6.48 6.48 2 12 2ZM12 16C14.2133 16 16 14.2133 16 12C16 9.78667 14.2133 8 12 8C9.78667 8 8 9.78667 8 12C8 14.2133 9.78667 16 12 16ZM12 11C12.55 11 13 11.45 13 12C13 12.55 12.55 13 12 13C11.45 13 11 12.55 11 12C11 11.45 11.45 11 12 11Z"/></svg>
